X:1
T:Title
%%score { ( 1 3 ) | 2 }
L:1/8
M:4/4
K:G
V:1 treble nm="Grand Piano"
V:3 treble 
V:2 bass 
V:1
 z4 z2[Q:1/4=100] D>D | G2 G2 G2 G>A | B2 B2 B2 B>B | [FA]2 [FA]2 [FA]2 B>A | G2 E2 [B,D]2 D>D | %5
 G2 G2 G2 G>A | B2 B2 B2 B>B | [FA]2 [FA]2 [DFA]2 [DG]>[EGA] |[M:7/8] [DGB]2 [CFA]2 [B,G]3 | %9
[M:1/4] B>c |[M:4/4] d6 z2 | B6 z2 | d2 d2 d2 B2 | [FA]6 B>c | d6 z2 | B6 z2 | %16
 [DGB]2 [DGB]2 [DGB]2 [CFA]2 |[M:3/4] [B,G]6 |] %18
V:2
 z4 z2 [G,B,]>[G,B,] | [G,B,D]2 [G,B,D]2 [G,B,D]2[K:treble] [G,B,D]>[G,CD] | %2
 [G,DG]2 [G,DG]2 [G,DG]2 [G,DG]>[G,DG] | [D,D]2 [D,D]2 [D,D]2 [D,G,D]>[D,F,C] | %4
 [E,G,B,]2 [C,G,C]2 [G,,G,]2 [G,B,]>[G,B,] | [G,B,D]2 [G,B,D]2 [G,B,D]2 [G,B,D]>[G,CD] | %6
 [G,DG]2 [G,DG]2 [G,DG]2 [G,DG]>[G,DG] | [D,D]2 [D,D]2 D,C, B,,>C, |[M:7/8] D,2 D,2 G,,3 | %9
[M:1/4] z2 |[M:4/4] z2 [G,B,]>[G,B,] [G,B,]2 z2 | z2[K:treble] [G,D]>[G,D] [G,D]2 [G,G]>[G,A,G] | %12
 [G,B,G]2 [G,B,G]2 [G,B,G]2 [G,DG]2 | [D,D]6 z2 | z2 [G,B,]>[G,B,] [G,B,]2 z2 | %15
 z2 [G,D]>[G,D] [G,D]2 B,,>C, | D,2 D,2 D,2 D,2 |[M:3/4] G,,6 |] %18
V:3
 x8 | x8 | x8 | x8 | x8 | x8 | x8 | x8 |[M:7/8] x7 |[M:1/4] x2 |[M:4/4] z2 G>G G2 e>d | %11
 z2 G>G G2 B>c | x8 | x8 | z2 G>G G2 e>d | z2 G>G G2 [DG]>[EGA] | x8 |[M:3/4] x6 |] %18

